X: 0
T: Somerset Carol
Z: Traditional (Somerset)
Z: Copyright © 2004 by Douglas D. Anderson
Z: Released To The Public Domain
L: 1/4
M: 4/4
Q: 1/4=120
V: P1 name="Staff"
%%MIDI program 1 19
K: D
[V: P1]  D | D A A B | A3/ F/ D C | D3/ C/ F G | A3z | D A A B | A3/ F/ D C | D C F G | A3 A | d d d d | (=c B) A A | G F D C | G2 F G | A2 A3/ A/ | A2 A B | (A3/ G/) E E | D3|]
w: Come all you wor- thy gen- tle men That may be stand- ing by. Christ our bless- ed Sa- vi our Was born on Christ- mas day. The bless- ed vir- gin Ma-_ ry Un- to the Lord did say, O we wish you the com- fort and tid-_ ings of joy!

